assets/betamax.svg

<svg fill="none" height="257" viewBox="0 0 256 257" width="256" xmlns="http://www.w3.org/2000/svg"><path d="m104.23 61.799c0-24.2976 21.238-26.0915 26.793-26.0915 5.554 0 40.515 2.9348 40.515 35.2235 0 32.452-27.12 37.181-49.5 37.181v9.948c16.827 0 52.768 5.544 52.768 43.865s-35.287 42.399-61.917 42.399v12.068h33.98c42.803 0 77.926-15.329 77.926-52.346 0-37.181-36.922-50.062-62.572-51.367 0 0 54.076-4.079 54.076-38.8102 0-36.2023-44.437-50.5528-93.121-50.5528-47.3765 0-71.3916 19.5686-71.3916 55.6087 0 28.2103.1662 178.0753.1662 178.0753h-51.9526v-257h256v257h-151.606s-.166-170.7356-.166-195.1977" fill="#000"/></svg>

<svg width="256" height="257" viewBox="0 0 256 257" fill="none" xmlns="http://www.w3.org/2000/svg">
<path d="M104.23 61.799C104.23 37.5014 125.468 35.7075 131.023 35.7075C136.577 35.7075 171.538 38.6423 171.538 70.931C171.538 103.383 144.418 108.112 122.038 108.112V118.06C138.865 118.06 174.806 123.604 174.806 161.925C174.806 200.246 139.519 204.324 112.889 204.324V216.392H146.869C189.672 216.392 224.795 201.063 224.795 164.046C224.795 126.865 187.873 113.984 162.223 112.679C162.223 112.679 216.299 108.6 216.299 73.8688C216.299 37.6665 171.862 23.316 123.178 23.316C75.8015 23.316 51.7864 42.8846 51.7864 78.9247C51.7864 107.135 51.9526 257 51.9526 257H0V0H256V257H104.394C104.394 257 104.228 86.2644 104.228 61.8023" fill="black"/>
</svg>
